X: 37519
T: Slippery Jig
R: slip jig
M: 9/8
K: Dmajor
|:A,DD DA,D DA,D|FDF AFA ABc|
DA,D DA,D FDF|ABA AGF GEE|
A,DD DA,D DA,D|AFA ABc ddd|
BdB BAG AGF|GFE EFD DB,A,:|
|:FAA AFA AFA|FAA ABc dAG|
FAA AFA BAF|GFG GEE GEE|
FAA AFA AFA|FAA ABc def|
gfe fed edc|BAG AGF FDD:|

